busstops/static/svg/layers.svg

<svg clip-rule="evenodd" fill-rule="evenodd" stroke-linejoin="round" stroke-miterlimit="2" viewBox="0 0 29 29" xmlns="http://www.w3.org/2000/svg"><path d="m109.5 3-6.5 3v1l6.5 3h1l6.5-3v-1l-6.5-3zm-5.406 6.5-1.094.5v1l6.5 3h1l6.5-3v-1l-1.094-.5-5.406 2.5h-1zm0 4-1.094.5v1l6.5 3h1l6.5-3v-1l-1.094-.5-5.406 2.5h-1z" fill-rule="nonzero" transform="matrix(1.42857 0 0 1.33333 -142.643 .5)"/></svg>

<?xml version="1.0" encoding="UTF-8" standalone="no"?>
<!DOCTYPE svg PUBLIC "-//W3C//DTD SVG 1.1//EN" "http://www.w3.org/Graphics/SVG/1.1/DTD/svg11.dtd">
<svg width="100%" height="100%" viewBox="0 0 29 29" version="1.1" xmlns="http://www.w3.org/2000/svg" xmlns:xlink="http://www.w3.org/1999/xlink" xml:space="preserve" xmlns:serif="http://www.serif.com/" style="fill-rule:evenodd;clip-rule:evenodd;stroke-linejoin:round;stroke-miterlimit:2;">
    <g transform="matrix(1.42857,0,0,1.33333,-142.643,0.5)">
        <path d="M109.5,3L103,6L103,7L109.5,10L110.5,10L117,7L117,6L110.5,3L109.5,3ZM104.094,9.5L103,10L103,11L109.5,14L110.5,14L117,11L117,10L115.906,9.5L110.5,12L109.5,12L104.094,9.5ZM104.094,13.5L103,14L103,15L109.5,18L110.5,18L117,15L117,14L115.906,13.5L110.5,16L109.5,16L104.094,13.5Z" style="fill-rule:nonzero;"/>
    </g>
</svg>
